packages/icons/svgs/duotone/Source=gas.svg

<svg width="24" height="24" viewBox="0 0 24 24" fill="none" xmlns="http://www.w3.org/2000/svg">
<path opacity="0.5" fill-rule="evenodd" clip-rule="evenodd" d="M3.0665 10.3526C3.62627 6.24736 7.20427 3 11.5 3C15.7459 3 19.1859 6.0787 19.8907 10.0798C22.2211 10.5024 24 12.5515 24 15C24 17.7523 21.7523 20 19 20H5C2.24772 20 0 17.7523 0 15C0 12.9104 1.26852 11.0904 3.0665 10.3526ZM11.5 5C8.03592 5 5.1716 7.77935 4.99869 11.1512C4.9759 11.5956 4.6622 11.9715 4.22904 12.0734C2.99114 12.3647 2 13.5533 2 15C2 16.6477 3.35228 18 5 18H19C20.6477 18 22 16.6477 22 15C22 13.3523 20.6477 12 19 12C18.4775 12 18.043 11.5977 18.0029 11.0767C17.7417 7.68031 14.9602 5 11.5 5Z" fill="black" style="fill:black;fill-opacity:1;"/>
<path d="M12 10C12 11.1046 11.1046 12 10 12C8.89543 12 8 11.1046 8 10C8 8.89543 8.89543 8 10 8C11.1046 8 12 8.89543 12 10Z" fill="black" style="fill:black;fill-opacity:1;"/>
<path d="M15.9146 11C15.9146 11.8284 15.2431 12.5 14.4146 12.5C13.5862 12.5 12.9146 11.8284 12.9146 11C12.9146 10.1716 13.5862 9.5 14.4146 9.5C15.2431 9.5 15.9146 10.1716 15.9146 11Z" fill="black" style="fill:black;fill-opacity:1;"/>
<path d="M13 14.5C13 15.3284 12.3284 16 11.5 16C10.6716 16 10 15.3284 10 14.5C10 13.6716 10.6716 13 11.5 13C12.3284 13 13 13.6716 13 14.5Z" fill="black" style="fill:black;fill-opacity:1;"/>
<path d="M9 14.5C9 15.3284 8.32843 16 7.5 16C6.67157 16 6 15.3284 6 14.5C6 13.6716 6.67157 13 7.5 13C8.32843 13 9 13.6716 9 14.5Z" fill="black" style="fill:black;fill-opacity:1;"/>
<path d="M17.5 14.5C17.5 15.3284 16.8284 16 16 16C15.1716 16 14.5 15.3284 14.5 14.5C14.5 13.6716 15.1716 13 16 13C16.8284 13 17.5 13.6716 17.5 14.5Z" fill="black" style="fill:black;fill-opacity:1;"/>
</svg>

<svg xmlns="http://www.w3.org/2000/svg" width="24" height="24" viewBox="0 0 24 24"><path fill-rule="evenodd" d="M3.067 10.353C3.627 6.247 7.204 3 11.5 3c4.246 0 7.686 3.079 8.39 7.08A5.014 5.014 0 0 1 24 15c0 2.752-2.248 5-5 5H5c-2.752 0-5-2.248-5-5 0-2.09 1.269-3.91 3.067-4.647M11.5 5c-3.464 0-6.328 2.78-6.501 6.151a1 1 0 0 1-.77.922C2.991 12.365 2 13.553 2 15c0 1.648 1.352 3 3 3h14c1.648 0 3-1.352 3-3s-1.352-3-3-3a1 1 0 0 1-.997-.923C17.742 7.68 14.96 5 11.5 5" clip-rule="evenodd" opacity=".5"/><path d="M12 10a2 2 0 1 1-4 0 2 2 0 0 1 4 0m3.915 1a1.5 1.5 0 1 1-3 0 1.5 1.5 0 0 1 3 0M13 14.5a1.5 1.5 0 1 1-3 0 1.5 1.5 0 0 1 3 0m-4 0a1.5 1.5 0 1 1-3 0 1.5 1.5 0 0 1 3 0m8.5 0a1.5 1.5 0 1 1-3 0 1.5 1.5 0 0 1 3 0"/></svg>
